images/icons8-instagram.svg

<svg xmlns="http://www.w3.org/2000/svg" xmlns:xlink="http://www.w3.org/1999/xlink" viewBox="0,0,256,256" width="50px" height="50px" fill-rule="nonzero"><g fill="#ffffff" fill-rule="nonzero" stroke="none" stroke-width="1" stroke-linecap="butt" stroke-linejoin="miter" stroke-miterlimit="10" stroke-dasharray="" stroke-dashoffset="0" font-family="none" font-weight="none" font-size="none" text-anchor="none" style="mix-blend-mode: normal"><g transform="scale(10.66667,10.66667)"><path d="M8,3c-2.757,0 -5,2.243 -5,5v8c0,2.757 2.243,5 5,5h8c2.757,0 5,-2.243 5,-5v-8c0,-2.757 -2.243,-5 -5,-5zM8,5h8c1.654,0 3,1.346 3,3v8c0,1.654 -1.346,3 -3,3h-8c-1.654,0 -3,-1.346 -3,-3v-8c0,-1.654 1.346,-3 3,-3zM17,6c-0.55228,0 -1,0.44772 -1,1c0,0.55228 0.44772,1 1,1c0.55228,0 1,-0.44772 1,-1c0,-0.55228 -0.44772,-1 -1,-1zM12,7c-2.757,0 -5,2.243 -5,5c0,2.757 2.243,5 5,5c2.757,0 5,-2.243 5,-5c0,-2.757 -2.243,-5 -5,-5zM12,9c1.654,0 3,1.346 3,3c0,1.654 -1.346,3 -3,3c-1.654,0 -3,-1.346 -3,-3c0,-1.654 1.346,-3 3,-3z"></path></g></g></svg>

<svg xmlns="http://www.w3.org/2000/svg" width="50" height="50" viewBox="0 0 256 256"><path fill="#fff" stroke-miterlimit="10" d="M8 3C5.243 3 3 5.243 3 8v8c0 2.757 2.243 5 5 5h8c2.757 0 5-2.243 5-5V8c0-2.757-2.243-5-5-5zm0 2h8c1.654 0 3 1.346 3 3v8c0 1.654-1.346 3-3 3H8c-1.654 0-3-1.346-3-3V8c0-1.654 1.346-3 3-3zm9 1a1 1 0 1 0 0 2 1 1 0 0 0 0-2zm-5 1c-2.757 0-5 2.243-5 5s2.243 5 5 5 5-2.243 5-5-2.243-5-5-5zm0 2c1.654 0 3 1.346 3 3s-1.346 3-3 3-3-1.346-3-3 1.346-3 3-3z" font-family="none" font-size="none" font-weight="none" style="mix-blend-mode:normal" text-anchor="none" transform="scale(10.66667)"/></svg>
